X:45
T:New Shropshire March,The,#50. JBs.045
S:Jas.Blackshaw MS, 1837, N.Shropshire
Z:Tony Weatherall 2006
M:4/4
L:1/8
Q:1/2=80
A:North Shropshire
R:March
K:F
f>e|f2F>FF2a>g|a2F>F F2c>c|d2 (3bag f2e2|f2f>f f2g2|
a4 b4|câ€™2 g>gg2f2|(3efg (3agf e2d2|c2c>cc2:|
|:g>g|g2c>c cega|b>ba>g f2(3cde|ffcc AAFF|c2c>cc2
f>e|f2FF F2(3abcâ€™|d4c3b|ag/a/ (3bagf2e2|f2f>f f2:|

